X: 2
T: No_101_"You_Cannot_Defeat_Us".krn
N: Derived from No_101_"You_Cannot_Defeat_Us".krn
%%abc-version 2.0
%%abcx-abcm2ps-target-version 5.9.1 (29 Sep 2008)
%%abc-creator hum2abc beta
%%abcx-conversion-date 2019/03/15 08:36:13
%%humdrum-veritas 809259132
%%humdrum-veritas-data 2650071808
%%linebreak <none>
%%barnumbers 0
L: 1/8
M: 2/4
K: A clef=bass
[K:clef=bass][M:2/4]z2z B, | 
B,3B, | 
B,/A,3/- A,3/A,/ | 
A,7/A,/ | 
A,4- | 
A,2z A, ]|:  
A,3A, | 
A,/F,3/- F,3/E,/ | 
F,2z E, ||  
[M:3/4]F,A, B,A,/A,/ (3:2:2A,A,/F,- ||  
[M:2/4]F,3F, | 
F,3E, ||  
[M:3/4]F,4z2 | 
F,F,/F,/ F,F,- F,F, ||  
[M:2/4]F,3F, ||  
[M:3/4]F,2A,2z A, ||  
[M:2/4]B,3B, | 
B,/A,3/- A,3/A,/ | 
A,3F, | 
A,3A, | 
A,4- | 
A,2z A, :|]  
A,4 |]  



